order_page/img/bin.svg

<svg xmlns="http://www.w3.org/2000/svg" viewBox="0 0 64 64" width="32px" height="32px"><path d="M 28 7 C 25.243 7 23 9.243 23 12 L 23 15 L 13 15 C 11.896 15 11 15.896 11 17 C 11 18.104 11.896 19 13 19 L 15.109375 19 L 16.792969 49.332031 C 16.970969 52.510031 19.600203 55 22.783203 55 L 41.216797 55 C 44.398797 55 47.029031 52.510031 47.207031 49.332031 L 48.890625 19 L 51 19 C 52.104 19 53 18.104 53 17 C 53 15.896 52.104 15 51 15 L 41 15 L 41 12 C 41 9.243 38.757 7 36 7 L 28 7 z M 28 11 L 36 11 C 36.552 11 37 11.449 37 12 L 37 15 L 27 15 L 27 12 C 27 11.449 27.448 11 28 11 z M 19.113281 19 L 44.886719 19 L 43.212891 49.109375 C 43.153891 50.169375 42.277797 51 41.216797 51 L 22.783203 51 C 21.723203 51 20.846109 50.170328 20.787109 49.111328 L 19.113281 19 z M 32 23.25 C 31.033 23.25 30.25 24.034 30.25 25 L 30.25 45 C 30.25 45.966 31.033 46.75 32 46.75 C 32.967 46.75 33.75 45.966 33.75 45 L 33.75 25 C 33.75 24.034 32.967 23.25 32 23.25 z M 24.642578 23.251953 C 23.677578 23.285953 22.922078 24.094547 22.955078 25.060547 L 23.652344 45.146484 C 23.685344 46.091484 24.462391 46.835938 25.400391 46.835938 C 25.421391 46.835938 25.441891 46.835938 25.462891 46.835938 C 26.427891 46.801938 27.183391 45.991391 27.150391 45.025391 L 26.453125 24.939453 C 26.419125 23.974453 25.606578 23.228953 24.642578 23.251953 z M 39.355469 23.251953 C 38.388469 23.224953 37.580875 23.974453 37.546875 24.939453 L 36.849609 45.025391 C 36.815609 45.991391 37.571109 46.801938 38.537109 46.835938 C 38.558109 46.836938 38.578609 46.835938 38.599609 46.835938 C 39.537609 46.835938 40.314656 46.091484 40.347656 45.146484 L 41.044922 25.060547 C 41.078922 24.094547 40.321469 23.285953 39.355469 23.251953 z"/></svg>

<svg xmlns="http://www.w3.org/2000/svg" xmlns:xlink="http://www.w3.org/1999/xlink" viewBox="0,0,256,256" width="32px" height="32px" fill-rule="nonzero"><g fill="#000000" fill-rule="nonzero" stroke="none" stroke-width="1" stroke-linecap="butt" stroke-linejoin="miter" stroke-miterlimit="10" stroke-dasharray="" stroke-dashoffset="0" font-family="none" font-weight="none" font-size="none" text-anchor="none" style="mix-blend-mode: normal"><g transform="scale(4,4)"><path d="M28,7c-2.757,0 -5,2.243 -5,5v3h-10c-1.104,0 -2,0.896 -2,2c0,1.104 0.896,2 2,2h2.10938l1.68359,30.33203c0.178,3.178 2.80723,5.66797 5.99023,5.66797h18.43359c3.182,0 5.81223,-2.48997 5.99023,-5.66797l1.68359,-30.33203h2.10938c1.104,0 2,-0.896 2,-2c0,-1.104 -0.896,-2 -2,-2h-10v-3c0,-2.757 -2.243,-5 -5,-5zM28,11h8c0.552,0 1,0.449 1,1v3h-10v-3c0,-0.551 0.448,-1 1,-1zM19.11328,19h25.77344l-1.67383,30.10938c-0.059,1.06 -0.93509,1.89063 -1.99609,1.89063h-18.43359c-1.06,0 -1.93709,-0.82967 -1.99609,-1.88867zM32,23.25c-0.967,0 -1.75,0.784 -1.75,1.75v20c0,0.966 0.783,1.75 1.75,1.75c0.967,0 1.75,-0.784 1.75,-1.75v-20c0,-0.966 -0.783,-1.75 -1.75,-1.75zM24.64258,23.25195c-0.965,0.034 -1.7205,0.84259 -1.6875,1.80859l0.69727,20.08594c0.033,0.945 0.81005,1.68945 1.74805,1.68945c0.021,0 0.0415,0 0.0625,0c0.965,-0.034 1.7205,-0.84455 1.6875,-1.81055l-0.69727,-20.08594c-0.034,-0.965 -0.84655,-1.7105 -1.81055,-1.6875zM39.35547,23.25195c-0.967,-0.027 -1.77459,0.7225 -1.80859,1.6875l-0.69727,20.08594c-0.034,0.966 0.7215,1.77655 1.6875,1.81055c0.021,0.001 0.0415,0 0.0625,0c0.938,0 1.71505,-0.74445 1.74805,-1.68945l0.69727,-20.08594c0.034,-0.966 -0.72345,-1.77459 -1.68945,-1.80859z"></path></g></g></svg>
